X:432
T:Duke of Gloucester's March. (p).1701.PLFD1.432, The
M:4/4
L:1/8
Q:1/2=90
S:Playford, Dancing Master,11th Ed.,1701.
O:England;London
Z:Chris Partington.
K:Bb
F2|B4BcdB|c4F2f2|d2cBc2BA|B2cBA2GF|
Bcd2(ed)(cB)|f6:||:f2|c4c3d|e4d4|d2d2(cB)(AG)|
d6cd|e2(dc)d2(cB)|f2c2F2c2|f2d2(ed)(cB)|B6:|
